X:1
T:Bal d'Abzac
C:Traditionnel.  Fichier ABC par Bernard Loffet
L:1/8
Q:300
M:2/2
K:C
|: [c4A,4] [A2A,2][^c2A,2] | [B4C,4] [B2C,2][BC,]B | [B2G,2]B2 [B2G,2][B2G,2] | [cF,]^c=cB [A2F,2][B2F,2] | \
 [c4A,4] [A2A,2][^c2A,2] | [B4C,4] [B2C,2][BC,]B | [B2G,2]B2 [B2G,2][B2G,2] |1 [A4A,4] A,2A,2 :|2 [A4A,4] A,2[B2A,2] | \
 [B4C,4] [B2C,2][B2C,2] | [B4G,4] [B2G,2][B2G,2] | [^c2F,2]c2 [c2F,2][=c2F,2] | [^c2G,2]c2 [c2G,2][=c2G,2] | \
 [B4C,4] [B2C,2][B2C,2] | [B4G,4] [B2G,2][BG,]B | [^c2F,2]c2 [c2F,2][=c2F,2] | [B4E,4] E,2E,2 | \
Z:Created with TablEdit http://www.tabledit.com/ by Bernard Loffet
